packages/icons/svg/24/PencilDraw.svg

<svg width="24" height="24" viewBox="0 0 24 24" fill="none" xmlns="http://www.w3.org/2000/svg">
<path d="M4.44064 14.2904L3.67415 18.1228C3.53421 18.8225 4.15113 19.4394 4.85085 19.2995L8.68328 18.533L15.9311 11.2851L11.6885 7.04251L4.44064 14.2904Z" fill="#858585"/>
<path d="M13.1027 5.6283L17.3453 9.87093L18.7595 8.45673C19.5406 7.67568 19.5406 6.40935 18.7596 5.6283L17.3453 4.21408C16.5643 3.43303 15.2979 3.43303 14.5169 4.21408L13.1027 5.6283Z" fill="#858585"/>
<path d="M11 18C10.4477 18 10 18.4477 10 19C10 19.5523 10.4477 20 11 20H21C21.5523 20 22 19.5523 22 19C22 18.4477 21.5523 18 21 18H11Z" fill="#858585"/>
</svg>

<svg width="24" height="24" fill="none" xmlns="http://www.w3.org/2000/svg" viewBox="0 0 24 24"><path d="M4.44 14.29l-.766 3.833a1 1 0 001.177 1.176l3.832-.766 7.248-7.248-4.242-4.242L4.44 14.29zM13.103 5.628l4.242 4.243 1.415-1.414a2 2 0 000-2.829l-1.415-1.414a2 2 0 00-2.828 0l-1.414 1.414zM11 18a1 1 0 100 2h10a1 1 0 100-2H11z" fill="currentColor"></path></svg>
